!!!SOCIAL_FUNCTION:	miscellaneous songs
!!!PDT:	1957
!!!OTL: No_11_Game_Song.krn
!!!LING_GROUP: Keresan
!!!LANG: Tone
!!!REG: Southwest
**kern
*staff1
=1-
*clefG2
*k[b-e-a-]
*M2/4
8c/L
8B-/J
8B-/L
8B-/J
=2
8B-/L
8B-/J
4B-/
=3
8c/L
8B-/J
8B-/L
8B-/J
=4
16G/
16r
8B-/
4B-/
=5!|:
8g/L
8b-/J
8b-\L
8cc\J
=6
8b-/L
8g/J
4e-/
=7
8B-/L
8B-/J
4B-/
=8
8c/L
8B-/J
8B-/L
8B-/J
=9
8B-/L
8B-/J
16F/LK
8B-/J
16r
=10
8g/L
8b-/J
8b-\L
8cc\J
=11
8b-/L
8g/J
4e-/
=12
8B-/L
8B-/J
4B-/
=13
8c/L
8B-/J
8B-/L
8B-/J
=14
8B-/L
8B-/J
8G/
8r
=15
8f/L
8f/J
12f/L
12f/
12f/J
=16
4f/
4B-/
=17
4B-/
8B-/L
8B-/J
=18
8B-/L
8B-/J
8B-/L
8B-/J
=19
8B-/L
8B-/J
8G/
8r
=20
8f/L
8f/J
12f/L
12f/
12f/J
=21
4f/
4B-/
=22
8B-/L
8B-/J
8B-/
8r
=23
4B-/
8B-/L
8B-/J
=24
8G/L
8B-/J
4B-/
=25
4e-/
8e-/
8r
=26
4B-/
4B-/
=27
8G/L
8e-/J
4B-/
=28
*M3/4
8B-/L
8B-/J
8B-/L
8B-/J
4B-/
==:|!
*-
